X:1
T:Olympia, 87.87 D
T:Olympia, 87.87 D
T:Philip Paul Bliss (1838-1876)
T:Public Domain Courtesy of the Cyber Hymnal™
C:Philip Paul Bliss (1838-1876)
Z:Public Domain
Z:Courtesy of the Cyber Hymnal™
%%score ( 1 2 ) ( 3 4 )
L:1/8
Q:1/4=110
M:4/4
K:F
V:1 treble 
V:2 treble 
V:3 bass 
V:4 bass 
V:1
 [Fc]2 | [Fc]2 [FA]2 [FA]3 [EG] [DF]2 D2 [DF]3 [EG] | [FA]2 [Fc]2 [Fc]3 [FA] | [FA]2 [EG]4 [Ec]2 | %4
 [Fc]2 [FA]2 [FA]3 [EG] | [DF]2 D2 [DF]3 [EG] | [FA]2 [Fc]2 (cB) (AG) | [EG]4 !fermata!F2 [EG]2 | %8
 [EG]2 [^D^F]2 [EG]3 [Ec] | [Ec]2 [F=B]2 [Ec]3 [Ec] | [Ad]3 [Ad] [Ge]2 [Fd]2 | [Fd]4 [Ec]2 [Ec]2 | %12
 [Fc]2 [FA]2 [FA]3 [EG] | [DF]2 D2 [DF]3 [EG] | [FA]2 [Fc]2 (cB) (AG) | [EG]4 !fermata!F2 x2 |] %16
 x6 |] %17
V:2
 x2 | x10 D2 x4 | x8 | x8 | x8 | x2 D2 x4 | x4 F2 F2 | x4 F2 x2 | x8 | x8 | x8 | x8 | x8 | %13
 x2 D2 x4 | x4 F2 F2 | x4 F2 x2 |] x6 |] %17
V:3
 [F,A,]2 | [F,A,]2 [F,C]2 [F,C]3 [C,B,] x8 | [D,A,]2 [D,F,]2 [D,A,]3 [C,C] | %3
 [F,C]2 [F,A,]2 [A,C]3 [F,C] | [C,C]2 [C,C]4 [C,B,]2 | [F,A,]2 [F,C]2 [F,C]3 [C,B,] | %6
 [D,A,]2 [D,F,]2 [D,A,]3 [C,C] | [F,C]2 [F,A,]2 [B,,D]2 [B,,D]2 | %8
 (D2 B,2) !fermata![F,A,]2 [C,C]2 | [C,C]2 [C,C]2 [C,C]3 [E,C] | G,2 G,2 [C,G,]3 [C,C] | %11
 [F,C]3 [F,C] [G,C]2 [G,=B,]2 | [G,=B,]4 [C,C]2 [C,_B,]2 | [F,A,]2 [F,C]2 [F,C]3 [C,B,] | %14
 [D,A,]2 [D,F,]2 [D,A,]3 [C,C] | [F,C]2 [F,A,]2 [B,,D]2 [B,,D]2 |] (C2 B,2) !fermata![F,A,]2 |] %17
V:4
 x2 | x16 | x8 | x8 | x8 | x8 | x8 | x8 | C,4 x4 | x8 | G,2 G,2 x4 | x8 | x8 | x8 | x8 | x8 |] %16
 C,4 x2 |] %17

